X: 28
T: Sherbrooke, Le Reel de
R: Reel
M: 4/4
L: 1/8
K: G
|: (3def|"G"g2fe dcBA|GBDG BBAG|"D7"FADF AcBA|"G"GABc "D7"d2(3def|"G"g2fe dcBA|
GBDG BBAG|"Am"FGAB "D7"cdef|"G"gb"D"af "G"g2:||:z2|"D"AAFA d2Ad|ffdf a2fa|
"Em"a2g2 "A"eceg|"D"b2a2 fafd|"D"AAFA d2Ad|ffdf a2fa|"Em"a2g2 "A"eceg|"D"fd"A"ec"D"d2:|
